motivators/badges/pix/pyramide_03.svg

<?xml version="1.0" encoding="UTF-8" standalone="no"?>
<!-- Generator: Adobe Illustrator 16.0.0, SVG Export Plug-In . SVG Version: 6.00 Build 0)  -->

<svg
   xmlns:dc="http://purl.org/dc/elements/1.1/"
   xmlns:cc="http://creativecommons.org/ns#"
   xmlns:rdf="http://www.w3.org/1999/02/22-rdf-syntax-ns#"
   xmlns:svg="http://www.w3.org/2000/svg"
   xmlns="http://www.w3.org/2000/svg"
   xmlns:sodipodi="http://sodipodi.sourceforge.net/DTD/sodipodi-0.dtd"
   xmlns:inkscape="http://www.inkscape.org/namespaces/inkscape"
   version="1.1"
   id="Calque_1"
   x="0px"
   y="0px"
   width="260px"
   height="260px"
   viewBox="0 0 260 260"
   enable-background="new 0 0 260 260"
   xml:space="preserve"
   inkscape:version="0.91 r13725"
   sodipodi:docname="pyramide_03.svg"><metadata
     id="metadata99"><rdf:RDF><cc:Work
         rdf:about=""><dc:format>image/svg+xml</dc:format><dc:type
           rdf:resource="http://purl.org/dc/dcmitype/StillImage" /></cc:Work></rdf:RDF></metadata><defs
     id="defs97" /><sodipodi:namedview
     pagecolor="#ffffff"
     bordercolor="#666666"
     borderopacity="1"
     objecttolerance="10"
     gridtolerance="10"
     guidetolerance="10"
     inkscape:pageopacity="0"
     inkscape:pageshadow="2"
     inkscape:window-width="1050"
     inkscape:window-height="624"
     id="namedview95"
     showgrid="false"
     inkscape:zoom="0.90769231"
     inkscape:cx="130"
     inkscape:cy="128.89831"
     inkscape:window-x="65"
     inkscape:window-y="24"
     inkscape:window-maximized="0"
     inkscape:current-layer="Calque_1" /><g
     id="calque00"
     transform="matrix(0.87,0,0,0.87,16.899935,16.9)"><g
       id="g4"><g
         id="g6"><path
           d="m 14.694,217.583 132.863,0 c 0.938,0 1.703,-0.767 1.703,-1.708 l 0,-69.473 c 0,-0.939 -0.765,-1.705 -1.703,-1.705 l -132.863,0 c -0.942,0 -1.707,0.766 -1.707,1.707 l 0.003,69.471 c 0,0.943 0.762,1.708 1.704,1.708 z"
           id="path8"
           inkscape:connector-curvature="0"
           style="fill:#f8b334;fill-opacity:0" /><path
           enable-background="new    "
           d="m 140.424,170.473 c -2.27,0 -4.107,1.84 -4.107,4.109 l 0,30.122 -13.072,0 c -2.267,0 -4.107,1.837 -4.107,4.106 0,2.268 1.84,4.107 4.107,4.107 l 17.18,0 c 2.268,0 4.107,-1.84 4.107,-4.107 l 0,-34.229 c -0.001,-2.268 -1.843,-4.108 -4.108,-4.108 z"
           id="path10"
           inkscape:connector-curvature="0"
           style="opacity:0.5;fill:#999999" /><path
           enable-background="new    "
           d="m 140.424,157.979 c -2.27,0 -4.107,1.838 -4.107,4.107 l 0,0 c 0,2.268 1.838,4.107 4.107,4.107 2.268,0 4.107,-1.842 4.107,-4.107 l 0,0 c 0,-2.27 -1.842,-4.107 -4.107,-4.107 z"
           id="path12"
           inkscape:connector-curvature="0"
           style="opacity:0.5;fill:#999999" /><path
           enable-background="new    "
           d="M 14.694,131.712 C 6.593,131.712 0,138.303 0,146.406 l 0,69.47 c 0,8.104 6.593,14.694 14.694,14.694 l 132.863,0 c 8.101,0 14.69,-6.59 14.69,-14.694 l 0,-69.474 c 0,-8.1 -6.59,-14.69 -14.69,-14.69 l -132.863,0 0,0 z m 139.339,84.164 0,0 c 0,3.575 -2.906,6.479 -6.477,6.479 l -132.862,0 c -3.571,0 -6.477,-2.905 -6.477,-6.479 l -0.003,-69.47 c 0,-3.574 2.909,-6.479 6.48,-6.479 l 132.863,0 c 3.57,0 6.477,2.904 6.477,6.475 l 0,69.474 z"
           id="path14"
           inkscape:connector-curvature="0"
           style="opacity:0.5;fill:#999999" /></g></g><g
       id="g16"><g
         id="g18"><path
           d="m 63.57,115.301 132.862,0 c 0.939,0 1.705,-0.764 1.705,-1.704 l 0,-69.473 c 0,-0.94 -0.766,-1.704 -1.705,-1.704 l -132.862,0 c -0.942,0 -1.707,0.764 -1.707,1.706 l 0.003,69.471 c 10e-4,0.94 0.762,1.704 1.704,1.704 z"
           id="path20"
           inkscape:connector-curvature="0"
           style="fill:#f8b334;fill-opacity:0" /><path
           enable-background="new    "
           d="m 189.3,68.193 c -2.271,0 -4.106,1.837 -4.106,4.107 l 0,30.121 -13.074,0 c -2.267,0 -4.106,1.839 -4.106,4.108 0,2.267 1.84,4.105 4.106,4.105 l 17.18,0 c 2.267,0 4.106,-1.837 4.106,-4.105 l 0,-34.229 c 0.001,-2.269 -1.84,-4.107 -4.106,-4.107 z"
           id="path22"
           inkscape:connector-curvature="0"
           style="opacity:0.5;fill:#999999" /><path
           enable-background="new    "
           d="m 189.3,55.696 c -2.271,0 -4.106,1.841 -4.106,4.107 l 0,0 c 0,2.266 1.836,4.108 4.106,4.108 2.267,0 4.107,-1.842 4.107,-4.108 l 0,0 c 0,-2.27 -1.841,-4.107 -4.107,-4.107 z"
           id="path24"
           inkscape:connector-curvature="0"
           style="opacity:0.5;fill:#999999" /><path
           enable-background="new    "
           d="m 63.57,29.433 c -8.101,0 -14.694,6.59 -14.694,14.692 l 0,69.471 c 0,8.103 6.593,14.692 14.694,14.692 l 132.862,0 c 8.102,0 14.691,-6.59 14.691,-14.692 l 0,-69.472 c 0,-8.101 -6.59,-14.691 -14.691,-14.691 l -132.862,0 z m 139.34,84.164 0,0 c 0,3.571 -2.906,6.477 -6.477,6.477 l -132.863,0 c -3.571,0 -6.477,-2.906 -6.477,-6.477 L 57.09,44.125 c 0,-3.573 2.909,-6.479 6.48,-6.479 l 132.862,0 c 3.571,0 6.478,2.906 6.478,6.477 l 0,69.474 0,0 z"
           id="path26"
           inkscape:connector-curvature="0"
           style="opacity:0.5;fill:#999999" /></g></g><g
       id="g28"><g
         id="g30"><path
           enable-background="new    "
           d="m 238.178,170.471 c -2.271,0 -4.107,1.84 -4.107,4.107 l 0,30.122 -13.073,0 c -2.267,0 -4.106,1.837 -4.106,4.106 0,2.268 1.84,4.107 4.106,4.107 l 17.181,0 c 2.266,0 4.106,-1.84 4.106,-4.107 l 0,-34.229 c -0.001,-2.266 -1.842,-4.106 -4.107,-4.106 z"
           id="path32"
           inkscape:connector-curvature="0"
           style="opacity:0.5;fill:#999999" /><path
           enable-background="new    "
           d="m 238.178,157.975 c -2.271,0 -4.107,1.838 -4.107,4.107 l 0,0 c 0,2.266 1.837,4.107 4.107,4.107 2.266,0 4.106,-1.842 4.106,-4.107 l 0,0 c 0,-2.269 -1.841,-4.107 -4.106,-4.107 z"
           id="path34"
           inkscape:connector-curvature="0"
           style="opacity:0.5;fill:#999999" /><path
           enable-background="new    "
           d="m 180.648,131.709 c -8.101,0 -14.693,6.59 -14.693,14.693 l 0,69.471 c 0,8.104 6.593,14.693 14.693,14.693 l 64.66,0 c 8.102,0 14.691,-6.59 14.691,-14.693 l 0,-69.473 c 0,-8.102 -6.59,-14.691 -14.691,-14.691 l -64.66,0 z m 71.138,84.164 0,0 c 0,3.574 -2.906,6.48 -6.478,6.48 l -64.66,0 c -3.57,0 -6.477,-2.906 -6.477,-6.48 l -0.003,-69.471 c 0,-3.574 2.909,-6.479 6.479,-6.479 l 64.66,0 c 3.571,0 6.478,2.904 6.478,6.475 l 0,69.475 0.001,0 z"
           id="path36"
           inkscape:connector-curvature="0"
           style="opacity:0.5;fill:#999999" /></g></g></g><g
     id="calque01"
     transform="matrix(0.87,0,0,0.87,16.899935,16.9)"><g
       id="g39"><path
         d="m 14.694,217.58 132.863,0 c 0.938,0 1.703,-0.764 1.703,-1.704 l 0,-69.474 c 0,-0.939 -0.765,-1.703 -1.703,-1.703 l -132.863,0 c -0.942,0 -1.707,0.764 -1.707,1.705 l 0.003,69.472 c 0,0.94 0.762,1.704 1.704,1.704 z"
         id="path41"
         inkscape:connector-curvature="0"
         style="fill:#f8b334" /><path
         enable-background="new    "
         d="m 140.424,170.473 c -2.27,0 -4.107,1.838 -4.107,4.107 l 0,30.12 -13.072,0 c -2.267,0 -4.107,1.839 -4.107,4.108 0,2.267 1.84,4.104 4.107,4.104 l 17.18,0 c 2.268,0 4.107,-1.837 4.107,-4.104 l 0,-34.228 c -0.001,-2.269 -1.843,-4.107 -4.108,-4.107 z"
         id="path43"
         inkscape:connector-curvature="0"
         style="opacity:0.5;fill:#ffffff" /><g
         id="g45"
         style="opacity:0.5"><g
           id="g47"><path
             d="m 140.424,157.975 c -2.27,0 -4.107,1.842 -4.107,4.107 l 0,0 c 0,2.266 1.838,4.107 4.107,4.107 2.268,0 4.107,-1.842 4.107,-4.107 l 0,0 c 0,-2.269 -1.842,-4.107 -4.107,-4.107 z"
             id="path49"
             inkscape:connector-curvature="0"
             style="fill:#ffffff" /></g></g><g
         id="g51"><g
           id="g53"><path
             d="M 14.694,131.712 C 6.593,131.712 0,138.303 0,146.404 l 0,69.472 c 0,8.103 6.593,14.692 14.694,14.692 l 132.863,0 c 8.101,0 14.69,-6.59 14.69,-14.692 l 0,-69.474 c 0,-8.1 -6.59,-14.69 -14.69,-14.69 l -132.863,0 0,0 z m 139.339,84.164 0,0 c 0,3.571 -2.906,6.478 -6.477,6.478 l -132.862,0 c -3.571,0 -6.477,-2.906 -6.477,-6.478 L 8.214,146.404 c 0,-3.572 2.909,-6.479 6.48,-6.479 l 132.863,0 c 3.57,0 6.477,2.906 6.477,6.477 l 0,69.474 z"
             id="path55"
             inkscape:connector-curvature="0"
             style="fill:#f0670b" /></g></g></g></g><g
     id="calque02"
     transform="matrix(0.87,0,0,0.87,16.899935,16.9)"><g
       id="g58"><path
         d="m 180.648,217.577 64.66,0 c 0.938,0 1.705,-0.765 1.705,-1.704 l 0,-69.473 c 0,-0.94 -0.768,-1.705 -1.705,-1.705 l -64.66,0 c -0.941,0 -1.707,0.765 -1.707,1.707 l 0,69.472 c 0.002,0.939 0.766,1.703 1.707,1.703 z"
         id="path60"
         inkscape:connector-curvature="0"
         style="fill:#f8b334" /><path
         enable-background="new    "
         d="m 238.178,170.469 c -2.271,0 -4.107,1.838 -4.107,4.107 l 0,30.121 -13.073,0 c -2.267,0 -4.108,1.839 -4.108,4.109 0,2.266 1.842,4.104 4.108,4.104 l 17.181,0 c 2.266,0 4.104,-1.837 4.104,-4.104 l 0,-34.229 c -10e-4,-2.27 -1.84,-4.108 -4.105,-4.108 z"
         id="path62"
         inkscape:connector-curvature="0"
         style="opacity:0.5;fill:#ffffff" /><g
         id="g64"
         style="opacity:0.5"><g
           id="g66"><path
             d="m 238.178,157.973 c -2.271,0 -4.107,1.84 -4.107,4.106 l 0,0 c 0,2.267 1.837,4.108 4.107,4.108 2.266,0 4.104,-1.842 4.104,-4.108 l 0,0 c 0,-2.27 -1.839,-4.106 -4.104,-4.106 z"
             id="path68"
             inkscape:connector-curvature="0"
             style="fill:#ffffff" /></g></g><g
         id="g70"><g
           id="g72"><path
             d="m 180.648,131.709 c -8.101,0 -14.695,6.59 -14.695,14.691 l 0,69.473 c 0,8.104 6.595,14.691 14.695,14.691 l 64.66,0 c 8.101,0 14.689,-6.59 14.689,-14.691 l 0,-69.473 c 0,-8.102 -6.59,-14.691 -14.689,-14.691 l -64.66,0 z m 71.138,84.164 0,0 c 0,3.57 -2.907,6.477 -6.478,6.477 l -64.66,0 c -3.572,0 -6.477,-2.906 -6.477,-6.477 L 174.168,146.4 c 0,-3.572 2.907,-6.479 6.479,-6.479 l 64.66,0 c 3.57,0 6.478,2.906 6.478,6.477 l 0,69.475 0.001,0 z"
             id="path74"
             inkscape:connector-curvature="0"
             style="fill:#f0670b" /></g></g></g></g><g
     id="calque03"
     transform="matrix(0.87,0,0,0.87,16.899935,16.9)"><g
       id="g77"><path
         d="m 63.57,115.301 132.862,0 c 0.939,0 1.705,-0.765 1.705,-1.707 l 0,-69.473 c 0,-0.938 -0.766,-1.704 -1.705,-1.704 l -132.862,0 c -0.942,0 -1.707,0.766 -1.707,1.708 l 0.003,69.47 c 10e-4,0.941 0.762,1.706 1.704,1.706 z"
         id="path79"
         inkscape:connector-curvature="0"
         style="fill:#f8b334" /><path
         enable-background="new    "
         d="m 189.3,68.19 c -2.271,0 -4.106,1.841 -4.106,4.109 l 0,30.122 -13.074,0 c -2.267,0 -4.106,1.837 -4.106,4.107 0,2.267 1.84,4.107 4.106,4.107 l 17.18,0 c 2.267,0 4.106,-1.84 4.106,-4.107 l 0,-34.229 c 0.001,-2.268 -1.84,-4.109 -4.106,-4.109 z"
         id="path81"
         inkscape:connector-curvature="0"
         style="opacity:0.5;fill:#ffffff" /><g
         id="g83"
         style="opacity:0.5"><g
           id="g85"><path
             d="m 189.3,55.696 c -2.271,0 -4.106,1.837 -4.106,4.107 l 0,0 c 0,2.266 1.836,4.107 4.106,4.107 2.267,0 4.107,-1.841 4.107,-4.107 l 0,0 c 0,-2.27 -1.841,-4.107 -4.107,-4.107 z"
             id="path87"
             inkscape:connector-curvature="0"
             style="fill:#ffffff" /></g></g><g
         id="g89"><g
           id="g91"><path
             d="m 63.57,29.43 c -8.101,0 -14.694,6.59 -14.694,14.694 l 0,69.47 c 0,8.104 6.593,14.694 14.694,14.694 l 132.862,0 c 8.102,0 14.691,-6.59 14.691,-14.694 l 0,-69.473 c 0,-8.101 -6.59,-14.691 -14.691,-14.691 l -132.862,0 z m 139.34,84.164 0,0 c 0,3.574 -2.906,6.48 -6.477,6.48 l -132.863,0 c -3.571,0 -6.477,-2.906 -6.477,-6.48 L 57.09,44.124 c 0,-3.575 2.909,-6.479 6.48,-6.479 l 132.862,0 c 3.571,0 6.478,2.904 6.478,6.475 l 0,69.474 0,0 z"
             id="path93"
             inkscape:connector-curvature="0"
             style="fill:#f0670b" /></g></g></g></g></svg>

<?xml version="1.0" encoding="utf-8"?>
<!-- Generator: Adobe Illustrator 16.0.0, SVG Export Plug-In . SVG Version: 6.00 Build 0)  -->
<!DOCTYPE svg PUBLIC "-//W3C//DTD SVG 1.1//EN" "http://www.w3.org/Graphics/SVG/1.1/DTD/svg11.dtd">
<svg version="1.1" id="Calque_1" xmlns="http://www.w3.org/2000/svg" xmlns:xlink="http://www.w3.org/1999/xlink" x="0px" y="0px"
	 width="260px" height="260px" viewBox="0 0 260 260" enable-background="new 0 0 260 260" xml:space="preserve">
<g id="calque00">
	<g>
		<g>
			<path fill="#F8B334" fill-opacity="0" d="M14.694,217.583h132.863c0.938,0,1.703-0.767,1.703-1.708v-69.473
				c0-0.939-0.765-1.705-1.703-1.705H14.694c-0.942,0-1.707,0.766-1.707,1.707l0.003,69.471
				C12.99,216.818,13.752,217.583,14.694,217.583z"/>
			<path opacity="0.5" fill="#999999" enable-background="new    " d="M140.424,170.473c-2.27,0-4.107,1.84-4.107,4.109v30.122
				h-13.072c-2.267,0-4.107,1.837-4.107,4.106c0,2.268,1.84,4.107,4.107,4.107h17.18c2.268,0,4.107-1.84,4.107-4.107v-34.229
				C144.531,172.313,142.689,170.473,140.424,170.473z"/>
			<path opacity="0.5" fill="#999999" enable-background="new    " d="M140.424,157.979c-2.27,0-4.107,1.838-4.107,4.107l0,0
				c0,2.268,1.838,4.107,4.107,4.107c2.268,0,4.107-1.842,4.107-4.107l0,0C144.531,159.816,142.689,157.979,140.424,157.979z"/>
			<path opacity="0.5" fill="#999999" enable-background="new    " d="M14.694,131.712C6.593,131.712,0,138.303,0,146.406v69.47
				c0,8.104,6.593,14.694,14.694,14.694h132.863c8.101,0,14.69-6.59,14.69-14.694v-69.474c0-8.1-6.59-14.69-14.69-14.69H14.694
				L14.694,131.712z M154.033,215.876L154.033,215.876c0,3.575-2.906,6.479-6.477,6.479H14.694c-3.571,0-6.477-2.905-6.477-6.479
				l-0.003-69.47c0-3.574,2.909-6.479,6.48-6.479h132.863c3.57,0,6.477,2.904,6.477,6.475V215.876z"/>
		</g>
	</g>
	<g>
		<g>
			<path fill="#F8B334" fill-opacity="0" d="M63.57,115.301h132.862c0.939,0,1.705-0.764,1.705-1.704V44.124
				c0-0.94-0.766-1.704-1.705-1.704H63.57c-0.942,0-1.707,0.764-1.707,1.706l0.003,69.471
				C61.867,114.537,62.628,115.301,63.57,115.301z"/>
			<path opacity="0.5" fill="#999999" enable-background="new    " d="M189.3,68.193c-2.271,0-4.106,1.837-4.106,4.107v30.121
				H172.12c-2.267,0-4.106,1.839-4.106,4.108c0,2.267,1.84,4.105,4.106,4.105h17.18c2.267,0,4.106-1.837,4.106-4.105V72.3
				C193.407,70.031,191.566,68.193,189.3,68.193z"/>
			<path opacity="0.5" fill="#999999" enable-background="new    " d="M189.3,55.696c-2.271,0-4.106,1.841-4.106,4.107l0,0
				c0,2.266,1.836,4.108,4.106,4.108c2.267,0,4.107-1.842,4.107-4.108l0,0C193.407,57.533,191.566,55.696,189.3,55.696z"/>
			<path opacity="0.5" fill="#999999" enable-background="new    " d="M63.57,29.433c-8.101,0-14.694,6.59-14.694,14.692v69.471
				c0,8.103,6.593,14.692,14.694,14.692h132.862c8.102,0,14.691-6.59,14.691-14.692V44.124c0-8.101-6.59-14.691-14.691-14.691H63.57
				z M202.91,113.597L202.91,113.597c0,3.571-2.906,6.477-6.477,6.477H63.57c-3.571,0-6.477-2.906-6.477-6.477L57.09,44.125
				c0-3.573,2.909-6.479,6.48-6.479h132.862c3.571,0,6.478,2.906,6.478,6.477L202.91,113.597L202.91,113.597z"/>
		</g>
	</g>
	<g>
		<g>
			<path opacity="0.5" fill="#999999" enable-background="new    " d="M238.178,170.471c-2.271,0-4.107,1.84-4.107,4.107V204.7
				h-13.073c-2.267,0-4.106,1.837-4.106,4.106c0,2.268,1.84,4.107,4.106,4.107h17.181c2.266,0,4.106-1.84,4.106-4.107v-34.229
				C242.284,172.311,240.443,170.471,238.178,170.471z"/>
			<path opacity="0.5" fill="#999999" enable-background="new    " d="M238.178,157.975c-2.271,0-4.107,1.838-4.107,4.107l0,0
				c0,2.266,1.837,4.107,4.107,4.107c2.266,0,4.106-1.842,4.106-4.107l0,0C242.284,159.813,240.443,157.975,238.178,157.975z"/>
			<path opacity="0.5" fill="#999999" enable-background="new    " d="M180.648,131.709c-8.101,0-14.693,6.59-14.693,14.693v69.471
				c0,8.104,6.593,14.693,14.693,14.693h64.66c8.102,0,14.691-6.59,14.691-14.693V146.4c0-8.102-6.59-14.691-14.691-14.691H180.648z
				 M251.786,215.873L251.786,215.873c0,3.574-2.906,6.48-6.478,6.48h-64.66c-3.57,0-6.477-2.906-6.477-6.48l-0.003-69.471
				c0-3.574,2.909-6.479,6.479-6.479h64.66c3.571,0,6.478,2.904,6.478,6.475V215.873L251.786,215.873z"/>
		</g>
	</g>
</g>
<g id="calque01">
	<g>
		<path fill="#F8B334" d="M14.694,217.58h132.863c0.938,0,1.703-0.764,1.703-1.704v-69.474c0-0.939-0.765-1.703-1.703-1.703H14.694
			c-0.942,0-1.707,0.764-1.707,1.705l0.003,69.472C12.99,216.816,13.752,217.58,14.694,217.58z"/>
		<path opacity="0.5" fill="#FFFFFF" enable-background="new    " d="M140.424,170.473c-2.27,0-4.107,1.838-4.107,4.107v30.12
			h-13.072c-2.267,0-4.107,1.839-4.107,4.108c0,2.267,1.84,4.104,4.107,4.104h17.18c2.268,0,4.107-1.837,4.107-4.104V174.58
			C144.531,172.311,142.689,170.473,140.424,170.473z"/>
		<g opacity="0.5">
			<g>
				<path fill="#FFFFFF" d="M140.424,157.975c-2.27,0-4.107,1.842-4.107,4.107l0,0c0,2.266,1.838,4.107,4.107,4.107
					c2.268,0,4.107-1.842,4.107-4.107l0,0C144.531,159.813,142.689,157.975,140.424,157.975z"/>
			</g>
		</g>
		<g>
			<g>
				<path fill="#F0670B" d="M14.694,131.712C6.593,131.712,0,138.303,0,146.404v69.472c0,8.103,6.593,14.692,14.694,14.692h132.863
					c8.101,0,14.69-6.59,14.69-14.692v-69.474c0-8.1-6.59-14.69-14.69-14.69H14.694L14.694,131.712z M154.033,215.876
					L154.033,215.876c0,3.571-2.906,6.478-6.477,6.478H14.694c-3.571,0-6.477-2.906-6.477-6.478l-0.003-69.472
					c0-3.572,2.909-6.479,6.48-6.479h132.863c3.57,0,6.477,2.906,6.477,6.477V215.876z"/>
			</g>
		</g>
	</g>
</g>
<g id="calque02">
	<g>
		<path fill="#F8B334" d="M180.648,217.577h64.66c0.938,0,1.705-0.765,1.705-1.704V146.4c0-0.94-0.768-1.705-1.705-1.705h-64.66
			c-0.941,0-1.707,0.765-1.707,1.707v69.472C178.943,216.813,179.707,217.577,180.648,217.577z"/>
		<path opacity="0.5" fill="#FFFFFF" enable-background="new    " d="M238.178,170.469c-2.271,0-4.107,1.838-4.107,4.107v30.121
			h-13.073c-2.267,0-4.108,1.839-4.108,4.109c0,2.266,1.842,4.104,4.108,4.104h17.181c2.266,0,4.104-1.837,4.104-4.104v-34.229
			C242.282,172.307,240.443,170.469,238.178,170.469z"/>
		<g opacity="0.5">
			<g>
				<path fill="#FFFFFF" d="M238.178,157.973c-2.271,0-4.107,1.84-4.107,4.106l0,0c0,2.267,1.837,4.108,4.107,4.108
					c2.266,0,4.104-1.842,4.104-4.108l0,0C242.282,159.809,240.443,157.973,238.178,157.973z"/>
			</g>
		</g>
		<g>
			<g>
				<path fill="#F0670B" d="M180.648,131.709c-8.101,0-14.695,6.59-14.695,14.691v69.473c0,8.104,6.595,14.691,14.695,14.691h64.66
					c8.101,0,14.689-6.59,14.689-14.691V146.4c0-8.102-6.59-14.691-14.689-14.691H180.648z M251.786,215.873L251.786,215.873
					c0,3.57-2.907,6.477-6.478,6.477h-64.66c-3.572,0-6.477-2.906-6.477-6.477l-0.003-69.473c0-3.572,2.907-6.479,6.479-6.479h64.66
					c3.57,0,6.478,2.906,6.478,6.477V215.873L251.786,215.873z"/>
			</g>
		</g>
	</g>
</g>
<g id="calque03">
	<g>
		<path fill="#F8B334" d="M63.57,115.301h132.862c0.939,0,1.705-0.765,1.705-1.707V44.121c0-0.938-0.766-1.704-1.705-1.704H63.57
			c-0.942,0-1.707,0.766-1.707,1.708l0.003,69.47C61.867,114.536,62.628,115.301,63.57,115.301z"/>
		<path opacity="0.5" fill="#FFFFFF" enable-background="new    " d="M189.3,68.19c-2.271,0-4.106,1.841-4.106,4.109v30.122H172.12
			c-2.267,0-4.106,1.837-4.106,4.107c0,2.267,1.84,4.107,4.106,4.107h17.18c2.267,0,4.106-1.84,4.106-4.107V72.299
			C193.407,70.031,191.566,68.19,189.3,68.19z"/>
		<g opacity="0.5">
			<g>
				<path fill="#FFFFFF" d="M189.3,55.696c-2.271,0-4.106,1.837-4.106,4.107l0,0c0,2.266,1.836,4.107,4.106,4.107
					c2.267,0,4.107-1.841,4.107-4.107l0,0C193.407,57.533,191.566,55.696,189.3,55.696z"/>
			</g>
		</g>
		<g>
			<g>
				<path fill="#F0670B" d="M63.57,29.43c-8.101,0-14.694,6.59-14.694,14.694v69.47c0,8.104,6.593,14.694,14.694,14.694h132.862
					c8.102,0,14.691-6.59,14.691-14.694V44.121c0-8.101-6.59-14.691-14.691-14.691H63.57z M202.91,113.594L202.91,113.594
					c0,3.574-2.906,6.48-6.477,6.48H63.57c-3.571,0-6.477-2.906-6.477-6.48l-0.003-69.47c0-3.575,2.909-6.479,6.48-6.479h132.862
					c3.571,0,6.478,2.904,6.478,6.475L202.91,113.594L202.91,113.594z"/>
			</g>
		</g>
	</g>
</g>
</svg>
